src/static/logos/runscope.svg

<?xml version="1.0" encoding="UTF-8" standalone="no"?>
<svg width="256px" height="267px" viewBox="0 0 256 267" version="1.1" xmlns="http://www.w3.org/2000/svg" xmlns:xlink="http://www.w3.org/1999/xlink" preserveAspectRatio="xMidYMid">
	<g>
		<path d="M223.580086,124.98141 L223.697957,125.617727 C224.024863,127.231079 225.44023,128.459511 227.14659,128.459511 C227.302216,128.459511 247.768403,128.462273 247.768403,128.462273 C249.68564,128.424518 251.213353,126.817612 251.213353,124.892086 C249.768518,114.492777 247.047367,104.523511 243.213813,95.1288633 L254.086446,86.2545036 C255.590216,85.0269928 255.993554,82.6668201 254.982446,81.0101871 L243.363914,61.9768633 C242.352806,60.3202302 240.069986,59.6001151 238.290878,60.3764029 L223.182273,66.9716259 C217.341237,59.4030504 210.619856,52.5499856 203.16823,46.5689784 L209.324201,31.4705036 C210.057209,29.6729784 209.280921,27.4085755 207.600345,26.4379856 L188.288921,15.2881727 C186.608345,14.3175827 184.259223,14.7780144 183.068547,16.3112518 L173.23741,28.9777266 C164.476317,25.4158273 155.20046,22.8595108 145.550734,21.4505899 L143.209899,4.38146763 C142.945612,2.45870504 141.14164,0.865611511 139.20046,0.865611511 L116.901755,0.865611511 C114.960576,0.865611511 113.156604,2.45870504 112.892317,4.38146763 L110.558849,21.3833669 C100.904518,22.7582158 91.6185324,25.276777 82.8473094,28.8046043 L72.9738129,16.0856403 C71.7831367,14.5524029 69.4340144,14.0928921 67.7534388,15.063482 L48.4420144,26.213295 C46.7614388,27.1838849 45.9851511,29.4492086 46.7181583,31.2467338 L52.8566331,46.3010072 C45.3847482,52.2543885 38.6412662,59.0798273 32.7753669,66.6235396 L17.5387626,60.1084317 C15.7541295,59.345036 13.4768345,60.0826475 12.4786187,61.7466475 L1.00282014,80.8656115 C0.00368345324,82.5305324 0.424517986,84.8870216 1.9374964,86.1025612 L12.6360863,94.7015827 C8.71044604,104.222388 5.91838849,114.330705 4.45882014,124.867223 C4.45513669,126.81577 5.99021583,128.424518 7.90653237,128.462273 L28.0660719,128.462273 C30.4916259,128.382158 31.9373813,126.924432 32.0331511,125.114935 C40.1570072,79.5331223 80.0718273,44.988777 127.842532,44.988777 C175.685065,44.988777 215.507799,79.5294388 223.580086,124.98141 Z" fill="#0A0B09"></path>
		<path d="M32.1160288,158.30377 C31.8010935,156.689496 30.3930935,155.503424 28.678446,155.503424 C28.5228201,155.503424 28.4233669,155.509871 28.2143309,155.511712 L28.2106475,155.514475 L8.05847482,155.514475 C6.14123741,155.55223 4.60247482,157.108489 4.60247482,159.034014 L4.60339568,159.045986 C12.988777,219.578014 64.922705,266.184748 127.761496,266.184748 L127.758734,266.184748 C190.597525,266.184748 242.531453,219.578014 250.916835,159.045065 L250.915914,159.045986 L250.919597,159.024806 C250.919597,157.099281 249.391885,155.55223 247.474647,155.514475 L227.305899,155.514475 C227.156719,155.495137 227.00846,155.468432 226.853755,155.468432 C224.967827,155.468432 223.441036,156.951022 223.342504,158.812086 C223.331453,158.845237 223.29646,158.862734 223.290935,158.894043 C215.218647,204.346014 175.529439,238.842475 127.758734,238.842475 L127.761496,238.842475 C79.9907914,238.842475 40.3015827,204.346014 32.229295,158.894043 L32.1160288,158.30377" fill="#0A0B09"></path>
		<path d="M171.938993,142.082763 C171.938993,117.933122 152.28777,98.3537266 128.047885,98.3537266 C103.806158,98.3537266 84.1576978,117.933122 84.1576978,142.082763 C84.1576978,166.235165 103.806158,185.812719 128.047885,185.812719 C152.28777,185.812719 171.938993,166.235165 171.938993,142.082763" fill="#3E64A0"></path>
	</g>
</svg>

<svg width="256" height="267" xmlns="http://www.w3.org/2000/svg" preserveAspectRatio="xMidYMid"><path d="M223.58 124.981l.118.637c.327 1.613 1.742 2.842 3.449 2.842l20.621.002c1.918-.037 3.445-1.644 3.445-3.57a123.783 123.783 0 00-8-29.763l10.873-8.874c1.504-1.228 1.908-3.588.896-5.245l-11.618-19.033c-1.011-1.657-3.294-2.377-5.073-1.6l-15.109 6.595a120.821 120.821 0 00-20.014-20.403l6.156-15.098c.733-1.798-.043-4.062-1.724-5.033l-19.311-11.15c-1.68-.97-4.03-.51-5.22 1.023l-9.832 12.667a119.18 119.18 0 00-27.686-7.527L143.21 4.38c-.264-1.922-2.068-3.515-4.01-3.515h-22.298c-1.941 0-3.745 1.593-4.01 3.515l-2.333 17.002a119.28 119.28 0 00-27.712 7.422l-9.873-12.72c-1.19-1.533-3.54-1.992-5.22-1.022l-19.312 11.15c-1.68.97-2.457 3.236-1.724 5.034L52.857 46.3a120.808 120.808 0 00-20.082 20.323L17.54 60.108c-1.785-.763-4.062-.025-5.06 1.639L1.003 80.866c-1 1.665-.578 4.021.934 5.237l10.7 8.599a123.55 123.55 0 00-8.178 30.165c-.004 1.949 1.531 3.558 3.448 3.595h20.16c2.425-.08 3.87-1.538 3.966-3.347 8.124-45.582 48.039-80.126 95.81-80.126 47.842 0 87.665 34.54 95.737 79.992zM32.116 158.304c-.315-1.615-1.723-2.8-3.438-2.8-.155 0-.255.006-.464.008l-.003.002H8.058a3.519 3.519 0 00-3.456 3.52l.001.012c8.386 60.532 60.32 107.139 123.158 107.139h-.002c62.839 0 114.772-46.607 123.158-107.14l-.001.001.004-.021a3.501 3.501 0 00-3.445-3.51h-20.17c-.148-.02-.297-.047-.451-.047a3.52 3.52 0 00-3.511 3.344c-.012.033-.047.05-.052.082-8.072 45.452-47.762 79.948-95.532 79.948h.002c-47.77 0-87.46-34.496-95.532-79.948l-.113-.59" fill="#0A0B09"/><path d="M171.939 142.083c0-24.15-19.651-43.73-43.891-43.73-24.242 0-43.89 19.58-43.89 43.73 0 24.152 19.648 43.73 43.89 43.73 24.24 0 43.891-19.578 43.891-43.73" fill="#3E64A0"/></svg>
